X:1
T:Title
%%score { ( 1 4 ) | ( 2 3 ) }
L:1/8
M:4/4
K:Bb
V:1 treble nm="Grand Piano"
V:4 treble 
V:2 bass 
V:3 bass 
V:1
 z4 z2[Q:1/4=100] F2 | B3 F DB, D>F | B6 c2 | d3 c [FB][EA] [DB]>[FB] |[M:3/4] c6 |[M:1/4] F2 | %6
[M:4/4] c3 A GF [FB]>c | d6 [Ge]2 | dFBe d2 c2 |[M:3/4] [DFB]6 |[M:1/4] F2 | %11
[M:4/4] e3 c AF [B,DB]>[Fc] | [Fd]6 z2 | G3 A BG [GB]>[Gc] | [^Fd]6 [=Fd]2 | e3 c AF B>d | %16
 f6 e-[^Fe] | dFBe d2 c2 |[M:3/4] [DFB]6 |] %19
V:2
 z4 z2 F,2 | B,3 F, D,B,, D,>F, | B,6[K:treble] [F,A,F]2 | %3
 [B,F]3[K:bass] [F,A,F] [D,B,][C,F,] [B,,F,]>[D,B,] |[M:3/4] [F,A,F]6 |[M:1/4] F,2 | %6
[M:4/4] C3 A, G,F, [D,F,]>[K:treble][F,A,F] | [B,F]6[K:bass] [E,B,]2 | %8
 [F,B,F][F,B,D][F,DF][F,CF] [F,B,F]2 [F,EF]2 |[M:3/4] B,,6 |[M:1/4] F,2 |[M:4/4] F4 .E2 F,2 | %12
 B,B,F,D, B,,2 [B,,B,]2 | G,3 A, B,G, E,>[E,G,] | [D,A,]6 [B,,B,]2 | %15
 [F,F]2 z [F,A,F] [CF]D F->[B,F] | [B,DB]6[K:bass] E,-[E,A,] | %17
 [F,B,F][F,B,D][F,DF][F,CF] [F,B,F]2 [F,EF]2 |[M:3/4] B,,6 |] %19
V:3
 x8 | x8 | x6[K:treble] x2 | x3[K:bass] x5 |[M:3/4] x6 |[M:1/4] x2 |[M:4/4] x15/2[K:treble] x/ | %7
 x6[K:bass] x2 | x8 |[M:3/4] x6 |[M:1/4] x2 |[M:4/4] [F,A,]2 z [F,A,E] [F,C]-[F,CE] z z/ A,/ | x8 | %13
 x8 | x8 | A,4 F,2 [B,D]2 | z4 z2[K:bass] .C2 | x8 |[M:3/4] x6 |] %19
V:4
 x8 | x8 | x8 | x8 |[M:3/4] x6 |[M:1/4] x2 |[M:4/4] x8 | x8 | x8 |[M:3/4] x6 |[M:1/4] x2 | %11
[M:4/4] x8 | z2 B,B, B,2 [Fd]2 | x8 | x8 | x8 | z4 z2 .G2 | x8 |[M:3/4] x6 |] %19

